X:42
T:Inisheer
C:Traditional
R:waltz
K:D
M:3/4
L:1/8
|: B3A Bd| B3A Bd| E3B AB| D3B AG|
! B3A Bd| B3A Bd| G3B A/G/F| 1 G3E DG:| 2 G3A Bd||
! e3f ed| B3A Bd| ef ed B/c/d| ! e3A Bd|
e3f ed| B3A Bd| G3B A/G/F| ! G3A Bd|
e3f ed| B3A Bd| gf ed B/c/d| ! e3A Bd|
e3f ed| B3A Bd| D3B A/G/F| G6||
%%footer JamBuddy 2025 - No rights reserved, public domain

